dist/img/apple.svg

<svg width="17" height="20" viewBox="0 0 17 20" fill="none" xmlns="http://www.w3.org/2000/svg">
<path d="M15.8469 14.891C15.5573 15.5586 15.2145 16.1731 14.8173 16.7381C14.2759 17.5083 13.8326 18.0414 13.491 18.3374C12.9615 18.8234 12.3941 19.0723 11.7865 19.0864C11.3503 19.0864 10.8243 18.9626 10.212 18.7113C9.59772 18.4613 9.03317 18.3374 8.51697 18.3374C7.97559 18.3374 7.39497 18.4613 6.77392 18.7113C6.15193 18.9626 5.65086 19.0935 5.26776 19.1065C4.68512 19.1312 4.10439 18.8753 3.52471 18.3374C3.15473 18.0155 2.69196 17.4635 2.13757 16.6815C1.54277 15.8464 1.05375 14.878 0.670653 13.7741C0.260364 12.5816 0.0546875 11.4269 0.0546875 10.309C0.0546875 9.02843 0.331996 7.92396 0.887441 6.99843C1.32397 6.255 1.90471 5.66857 2.63155 5.23806C3.35839 4.80755 4.14375 4.58817 4.9895 4.57413C5.45227 4.57413 6.05914 4.71697 6.81329 4.99768C7.5653 5.27934 8.04817 5.42218 8.25988 5.42218C8.41815 5.42218 8.95457 5.25516 9.86392 4.9222C10.7239 4.61341 11.4496 4.48555 12.0442 4.53592C13.6553 4.66566 14.8658 5.29939 15.6707 6.44113C14.2298 7.31229 13.517 8.53245 13.5312 10.0977C13.5442 11.317 13.9875 12.3315 14.8587 13.1371C15.2535 13.511 15.6944 13.8 16.1849 14.0052C16.0785 14.3131 15.9662 14.6079 15.8469 14.891V14.891ZM12.1518 0.382271C12.1518 1.33789 11.8019 2.23016 11.1045 3.05603C10.2629 4.03782 9.24488 4.60515 8.14096 4.51563C8.1269 4.40098 8.11874 4.28032 8.11874 4.15353C8.11874 3.23613 8.51898 2.25434 9.22975 1.45158C9.5846 1.04514 10.0359 0.707181 10.5832 0.437588C11.1293 0.172017 11.6459 0.0251503 12.1317 0C12.1459 0.127752 12.1518 0.255512 12.1518 0.382259V0.382271Z" fill="white"/>
</svg>

<svg width="17" height="20" fill="none" xmlns="http://www.w3.org/2000/svg"><path d="M15.847 14.891c-.29.668-.633 1.282-1.03 1.847-.541.77-.984 1.303-1.326 1.6-.53.485-1.097.734-1.704.748-.437 0-.963-.123-1.575-.375-.614-.25-1.179-.374-1.695-.374-.541 0-1.122.124-1.743.374-.622.252-1.123.383-1.506.396-.583.024-1.164-.232-1.743-.77-.37-.322-.833-.873-1.387-1.655-.595-.836-1.084-1.804-1.467-2.908-.41-1.192-.616-2.347-.616-3.465 0-1.28.277-2.385.832-3.31a4.88 4.88 0 011.745-1.76 4.7 4.7 0 012.357-.665c.463 0 1.07.143 1.824.424.752.281 1.235.424 1.447.424.158 0 .695-.167 1.604-.5.86-.309 1.586-.436 2.18-.386 1.611.13 2.822.763 3.627 1.905-1.441.871-2.154 2.091-2.14 3.657.013 1.219.457 2.233 1.328 3.04.395.373.835.662 1.326.867-.107.308-.219.603-.338.886zM12.152.382c0 .956-.35 1.848-1.047 2.674-.842.982-1.86 1.55-2.964 1.46a2.97 2.97 0 01-.022-.362c0-.918.4-1.9 1.11-2.702A4.277 4.277 0 0110.584.438C11.13.172 11.646.025 12.132 0c.014.128.02.256.02.382z" fill="#fff"/></svg>
